src/svg/waves-outline.svg

<svg version="1.2" baseProfile="tiny" xmlns="http://www.w3.org/2000/svg" width="24" height="24" viewBox="0 0 24 24"><path d="M20.221 10.761c.498-.552.779-1.252.779-2 0-.801-.312-1.555-.879-2.121-.566-.567-1.32-.879-2.121-.879s-1.555.312-2.121.879c-.233.232-.546.361-.879.361-.333 0-.646-.129-.879-.362-1.366-1.366-3.185-2.118-5.121-2.118s-3.755.752-5.121 2.118c-.567.567-.879 1.321-.879 2.122 0 .748.281 1.448.779 2-.498.551-.779 1.252-.779 2s.281 1.448.779 2c-.498.551-.779 1.252-.779 2 0 .801.312 1.555.879 2.121.566.566 1.32.879 2.121.879s1.555-.312 2.121-.879c.234-.233.545-.362.878-.362.333 0 .646.129.88.363 1.367 1.365 3.185 2.117 5.121 2.117 1.937 0 3.755-.752 5.121-2.118.567-.567.879-1.32.879-2.121 0-.748-.281-1.448-.779-2 .498-.552.779-1.252.779-2s-.281-1.449-.779-2zm-1.514 6.707c-1.021 1.021-2.364 1.532-3.707 1.532-1.342 0-2.685-.511-3.707-1.532-.633-.632-1.463-.948-2.293-.948-.831 0-1.661.316-2.292.948-.196.195-.452.293-.708.293s-.512-.098-.707-.293c-.391-.391-.391-1.023 0-1.414 1.021-1.021 2.364-1.532 3.706-1.532 1.343 0 2.686.511 3.708 1.532.632.632 1.463.947 2.293.947.831 0 1.661-.315 2.293-.947.195-.195.451-.293.707-.293s.512.098.707.293c.391.39.391 1.023 0 1.414zm-13.414-9.414c1.021-1.022 2.365-1.533 3.707-1.533 1.343 0 2.685.511 3.707 1.532.632.633 1.463.948 2.293.948.831 0 1.661-.315 2.293-.947.195-.196.451-.293.707-.293s.512.098.707.293c.391.391.391 1.023 0 1.414-1.021 1.021-2.364 1.532-3.707 1.532-1.342 0-2.685-.511-3.707-1.532-.633-.632-1.463-.948-2.293-.948-.831 0-1.661.316-2.292.948-.196.195-.452.293-.708.293s-.512-.098-.707-.293c-.391-.391-.391-1.024 0-1.414zm13.414 5.414c-1.021 1.021-2.364 1.532-3.707 1.532-1.342 0-2.685-.511-3.707-1.532-.633-.632-1.463-.948-2.293-.948-.831 0-1.661.316-2.292.948-.196.195-.452.293-.708.293s-.512-.098-.707-.293c-.391-.391-.391-1.023 0-1.414 1.021-1.021 2.364-1.532 3.706-1.532 1.343 0 2.686.511 3.708 1.532.632.632 1.463.947 2.293.947.831 0 1.661-.315 2.293-.947.195-.195.451-.293.707-.293s.512.098.707.293c.391.39.391 1.023 0 1.414z"/></svg>

<?xml version="1.0" encoding="iso-8859-1"?>
<!-- Generator: Adobe Illustrator 16.2.1, SVG Export Plug-In . SVG Version: 6.00 Build 0)  -->
<svg version="1.2" baseProfile="tiny" xmlns="http://www.w3.org/2000/svg" xmlns:xlink="http://www.w3.org/1999/xlink" x="0px"
	 y="0px" width="24px" height="24px" viewBox="0 0 24 24" xml:space="preserve">
<g id="Layer_1">
	<path d="M20.221,10.761c0.498-0.552,0.779-1.252,0.779-2c0-0.801-0.312-1.555-0.879-2.121C19.555,6.073,18.801,5.761,18,5.761
		s-1.555,0.312-2.121,0.879C15.646,6.872,15.333,7.001,15,7.001c-0.333,0-0.646-0.129-0.879-0.362
		C12.755,5.273,10.936,4.521,9,4.521S5.245,5.273,3.879,6.639C3.312,7.206,3,7.96,3,8.761c0,0.748,0.281,1.448,0.779,2
		C3.281,11.312,3,12.013,3,12.761s0.281,1.448,0.779,2C3.281,15.312,3,16.013,3,16.761c0,0.801,0.312,1.555,0.879,2.121
		c0.566,0.566,1.32,0.879,2.121,0.879s1.555-0.312,2.121-0.879c0.234-0.233,0.545-0.362,0.878-0.362c0.333,0,0.646,0.129,0.88,0.363
		C11.246,20.248,13.064,21,15,21c1.937,0,3.755-0.752,5.121-2.118C20.688,18.315,21,17.562,21,16.761c0-0.748-0.281-1.448-0.779-2
		c0.498-0.552,0.779-1.252,0.779-2S20.719,11.312,20.221,10.761z M18.707,17.468C17.686,18.489,16.343,19,15,19
		c-1.342,0-2.685-0.511-3.707-1.532C10.66,16.836,9.83,16.52,9,16.52c-0.831,0-1.661,0.316-2.292,0.948
		C6.512,17.663,6.256,17.761,6,17.761s-0.512-0.098-0.707-0.293c-0.391-0.391-0.391-1.023,0-1.414
		c1.021-1.021,2.364-1.532,3.706-1.532c1.343,0,2.686,0.511,3.708,1.532c0.632,0.632,1.463,0.947,2.293,0.947
		c0.831,0,1.661-0.315,2.293-0.947c0.195-0.195,0.451-0.293,0.707-0.293s0.512,0.098,0.707,0.293
		C19.098,16.444,19.098,17.077,18.707,17.468z M5.293,8.054C6.314,7.032,7.658,6.521,9,6.521c1.343,0,2.685,0.511,3.707,1.532
		C13.339,8.686,14.17,9.001,15,9.001c0.831,0,1.661-0.315,2.293-0.947C17.488,7.858,17.744,7.761,18,7.761s0.512,0.098,0.707,0.293
		c0.391,0.391,0.391,1.023,0,1.414C17.686,10.489,16.343,11,15,11c-1.342,0-2.685-0.511-3.707-1.532C10.66,8.836,9.83,8.52,9,8.52
		c-0.831,0-1.661,0.316-2.292,0.948C6.512,9.663,6.256,9.761,6,9.761S5.488,9.663,5.293,9.468C4.902,9.077,4.902,8.444,5.293,8.054z
		 M18.707,13.468C17.686,14.489,16.343,15,15,15c-1.342,0-2.685-0.511-3.707-1.532C10.66,12.836,9.83,12.52,9,12.52
		c-0.831,0-1.661,0.316-2.292,0.948C6.512,13.663,6.256,13.761,6,13.761s-0.512-0.098-0.707-0.293c-0.391-0.391-0.391-1.023,0-1.414
		c1.021-1.021,2.364-1.532,3.706-1.532c1.343,0,2.686,0.511,3.708,1.532c0.632,0.632,1.463,0.947,2.293,0.947
		c0.831,0,1.661-0.315,2.293-0.947c0.195-0.195,0.451-0.293,0.707-0.293s0.512,0.098,0.707,0.293
		C19.098,12.444,19.098,13.077,18.707,13.468z"/>
</g>
<g id="nyt_x5F_exporter_x5F_info" display="none">
</g>
</svg>
